X: 17
T:Trip To Netherby,A. Car.17
M:6/8
Q:80
C:"by Mr Hill"
S:CarlisleMS,Anon.c1812.AGG's transcription
R:Air
O:England
A:Carlisle
N:AGG says" not well noted, many notes being doubtful"..
Z:vmp.Chris Partington
K:D
F2G Add|Bdd AFD|F2G Add|c2e A2G|!
F2G Add|Bdd AFD|EFE FGA|G2B E3:|!
|:df/e/d/c/ cde|eg/f/e/d/ efg|fa/g/f/e/ {e}dcd|ce/d/c/B/ ABc|!
df/e/d/c/ cde|eg/f/e/d/ efg|fad ged|a2A "Qa Capo"A3:]
